X: 15486
T: Glenduan, The
R: polka
M: 2/4
K: Dmajor
|:F/G/A AF|AB de|fa fe|dB BA|
F/G/A AF|AB de|f/g/a fe|1 d2 d2:|2 d2 de||
|:fg/f/ ed|ga/g/ fe|fa fe|dB BA|
Af fA|Ag ga|ba fe|1 d2 de:|2 d2 d2||

